X:9031
T:La Praviana (CT 118)
T:Soi de Pravia (CT 118)
R:Tonada
C:Tradicional
S:Música Tradicional Asturiana, (C) Tello & Tito. Asturies, 2001.
S:http://pagina.de/MusTradAst <telloytito@asturies.org>
N:Canción de empleo indeterminado, transcrita en Pravia.
N:Se conoce con el nombre de La Praviana, y es, ya de antiguo, muy usada en la parte central de Asturias.
O:Pravia
A:Asturies
Z:Cancioneru de Torner 118
M:3/4
L:1/8
Q:1/4=116
W:Soy de Pravia, soy de Pravia (3)
W:y mi madre una praviana
W:
W:y mi madre una praviana (2)
W:y por eso en mi no cabe
W:partida ninguna mala.
K:Gm
|G4 B2|d4 e2|g6|f4 (e3/2f/4e/4)|d6-|d4 z2|
G4 B2|d4 e2|g6|f4 (e3/2f/4e/4)|d6|
f4 g2|f4 g2|f6|d4 (c3/2d/4c/4)|B6|
d4 e2|d4 e2|d6|c4 (A3/2B/4A/4)|G6-|G2 z4 :||



Xiraldilla
C:Tradicional
S:Música Tradicional Asturiana, (C) Tello & Tito. Asturies, 2001.
S:http://pagina.de/MusTradAst <telloytito@asturies.org>
A:Asturies
G:Arrg.
Z:Nacho Fonseca
M:2/4
L:1/8
Q:1/4=120
W:La Rosina nel rosal
W:ya se va esfoyando,
W:xardinera de mio vida
W:l'agua se la va llevando.
K:Dm
|: "Dm"D3 F|"Dm"A3 A|"Dm"B3 G|"Dm"A4|"Gm"G3 E|"Dm"F3 D|"A"E3 ^C|"Dm"D2 D2 :|
|: "Gm"GG FE|"Dm"FF ED|"A"EE D^C|"Dm"D2 D2 :|



